src/Icon/svgs/receipt.svg

<svg width="24" height="24" viewBox="0 0 24 24" fill="none" xmlns="http://www.w3.org/2000/svg">
<path d="M19 2C19.552 2 20 2.447 20 3V21C20 21.369 19.797 21.708 19.472 21.882C19.147 22.055 18.752 22.036 18.445 21.832L16.127 20.287L14.707 21.707C14.512 21.903 14.256 22 14 22C13.744 22 13.488 21.903 13.293 21.707L12 20.414L10.707 21.707C10.316 22.098 9.684 22.098 9.293 21.707L7.873 20.287L5.555 21.832C5.248 22.036 4.852 22.055 4.528 21.882C4.203 21.708 4 21.369 4 21V3C4 2.447 4.448 2 5 2H19ZM18 19.132V4H6V19.132L7.445 18.168C7.843 17.903 8.371 17.956 8.707 18.293L10 19.586L11.293 18.293C11.488 18.098 11.744 18 12 18C12.256 18 12.512 18.098 12.707 18.293L14 19.586L15.293 18.293C15.63 17.955 16.157 17.903 16.555 18.168L18 19.132ZM9 6H15C15.5523 6 16 6.44772 16 7C16 7.55228 15.5523 8 15 8H9C8.44772 8 8 7.55228 8 7C8 6.44772 8.44772 6 9 6ZM9 10H15C15.5523 10 16 10.4477 16 11C16 11.5523 15.5523 12 15 12H9C8.44772 12 8 11.5523 8 11C8 10.4477 8.44772 10 9 10ZM9 14H15C15.5523 14 16 14.4477 16 15C16 15.5523 15.5523 16 15 16H9C8.44772 16 8 15.5523 8 15C8 14.4477 8.44772 14 9 14Z" fill="#1B1C1D"/>
</svg>

<svg xmlns="http://www.w3.org/2000/svg" width="24" height="24" fill="none"><path d="M19 2a1 1 0 0 1 1 1v18a1 1 0 0 1-.528.882c-.325.173-.72.154-1.027-.05l-2.318-1.545-1.42 1.42c-.195.196-.451.293-.707.293s-.512-.097-.707-.293L12 20.414l-1.293 1.293a1 1 0 0 1-1.414 0l-1.42-1.42-2.318 1.545c-.307.204-.703.223-1.027.05A1 1 0 0 1 4 21V3a1 1 0 0 1 1-1h14zm-1 17.132V4H6v15.132l1.445-.964a1 1 0 0 1 1.262.125L10 19.586l1.293-1.293c.195-.195.451-.293.707-.293s.512.098.707.293L14 19.586l1.293-1.293a1 1 0 0 1 1.262-.125l1.445.964zM9 6h6a1 1 0 1 1 0 2H9a1 1 0 1 1 0-2zm0 4h6a1 1 0 1 1 0 2H9a1 1 0 1 1 0-2zm0 4h6a1 1 0 1 1 0 2H9a1 1 0 1 1 0-2z" fill="#1B1C1D"/></svg>
